X:114
T:Roys Wife. Le4.114
T:Roy's Wife of Aldivalloch,aka. Le4.114
M:2/4
L:1/8
Q:1/4=100
B:L.Leadley MS#4 c1850
Z:Village Music Project, 2016 Ruairidh Greig
K:G
d<B B>A|B>A B<e|d<B B>G|A>G A<B|
d<B A>G|g>a b>a|g<e d>B|A>G A<B||
(d>e/f//) g>b|(a/g/a/b/)g2|(d>e/f//) g>B|A>G A<B|
(d>e/f//) gb|(a/g/a/b/) HbHa|{ga}b>a g>B|A>G (A/B/g/e/)|
d>B B>A|B>A B<e|d>B B>G|A>G A<B|
d>B A>G|g>a b>a|g>e d>B| A>G A>B|]

